assets/bucket.svg

<svg xmlns="http://www.w3.org/2000/svg" fill="none" viewBox="0 0 21 28">
  <path fill="#2A2238" d="M1.65025 8.76029H.806956c-.116114.00012-.230838.02735-.336354.07982-.105516.05248-.199343.12896-.275085.22424-.075743.09529-.1316211.20713-.1638262.32791-.03220514.12079-.03998011.24766-.02279517.37199L2.22537 25.7664c.08621.6209.3752 1.1877.81451 1.5975.4393.4099.99978.6355 1.57967.6361H16.3772c.5802-.0001 1.1411-.2256 1.5807-.6355.4396-.4099.7289-.9769.8151-1.5981l2.2181-16.00215c.0172-.12433.0094-.2512-.0228-.37199-.0322-.12078-.0881-.23262-.1638-.32791-.0758-.09528-.1696-.17176-.2751-.22424-.1055-.05247-.2202-.0797-.3364-.07982h-.8433c-.1982-2.39293-1.2164-4.61892-2.8541-6.2401C14.8579.899011 12.7191 0 10.5 0 8.28092 0 6.14215.899011 4.50441 2.52019c-1.63773 1.62118-2.65588 3.84717-2.85416 6.2401Zm1.62359 0C3.47133 6.8351 4.3176 5.05636 5.65069 3.76448c1.3331-1.29187 3.05938-2.00616 4.84851-2.00616 1.7891 0 3.5154.71429 4.8485 2.00616 1.3331 1.29188 2.1794 3.07062 2.3768 4.99581H3.27384ZM19.2544 10.5094l-2.0775 14.9964c-.0286.2071-.1249.3962-.2714.5329-.1464.1367-.3333.212-.5267.2122H4.61955c-.19337-.0002-.38027-.0755-.52671-.2122-.14645-.1367-.24273-.3258-.27135-.5329L1.74395 10.5094H19.2544Z"/>
</svg>

<svg width="21" height="28" viewBox="0 0 21 28" fill="none" xmlns="http://www.w3.org/2000/svg">
<path d="M1.65025 8.76029H0.806956C0.690842 8.76041 0.576118 8.78764 0.470602 8.84011C0.365086 8.89259 0.271259 8.96907 0.195517 9.06435C0.119774 9.15964 0.0638959 9.27148 0.0316908 9.39226C-0.000514342 9.51305 -0.00828931 9.63992 0.00889563 9.76425L2.22537 25.7664C2.31158 26.3873 2.60057 26.9541 3.03988 27.3639C3.47918 27.7738 4.03966 27.9994 4.61955 28H16.3772C16.9574 27.9999 17.5183 27.7744 17.9579 27.3645C18.3975 26.9546 18.6868 26.3876 18.773 25.7664L20.9911 9.76425C21.0083 9.63992 21.0005 9.51305 20.9683 9.39226C20.9361 9.27148 20.8802 9.15964 20.8045 9.06435C20.7287 8.96907 20.6349 8.89259 20.5294 8.84011C20.4239 8.78764 20.3092 8.76041 20.193 8.76029H19.3497C19.1515 6.36736 18.1333 4.14137 16.4956 2.52019C14.8579 0.899011 12.7191 0 10.5 0C8.28092 0 6.14215 0.899011 4.50441 2.52019C2.86668 4.14137 1.84853 6.36736 1.65025 8.76029ZM3.27384 8.76029C3.47133 6.8351 4.3176 5.05636 5.65069 3.76448C6.98379 2.47261 8.71007 1.75832 10.4992 1.75832C12.2883 1.75832 14.0146 2.47261 15.3477 3.76448C16.6808 5.05636 17.5271 6.8351 17.7245 8.76029H3.27384ZM19.2544 10.5094L17.1769 25.5058C17.1483 25.7129 17.052 25.902 16.9055 26.0387C16.7591 26.1754 16.5722 26.2507 16.3788 26.2509H4.61955C4.42618 26.2507 4.23928 26.1754 4.09284 26.0387C3.94639 25.902 3.85011 25.7129 3.82149 25.5058L1.74395 10.5094H19.2544Z" fill="#2A2238"/>
</svg>
